azure-patterns/svg-circles-ramp.svg

<svg xmlns="http://www.w3.org/2000/svg" viewBox="0 0 157 157">
                                
                            
<path d="M111.596 37.5722C119.792 37.5722 126.453 30.9112 126.453 22.7151C126.453 14.5189 119.792 7.85791 111.596 7.85791C103.4 7.85791 96.739 14.5189 96.739 22.7151C96.739 30.936 103.375 37.5722 111.596 37.5722Z" fill="#50E6FF"></path>
<path d="M96.739 79.8902C102.88 79.8902 107.882 74.9131 107.882 68.7474C107.882 62.6064 102.905 57.6045 96.739 57.6045C90.5981 57.6045 85.5962 62.5816 85.5962 68.7474C85.5962 74.9131 90.5733 79.8902 96.739 79.8902Z" fill="#0078D4"></path>
<path d="M57.9867 117.429C61.0572 117.429 63.5581 114.928 63.5581 111.858C63.5581 108.787 61.0572 106.286 57.9867 106.286C54.9162 106.286 52.4153 108.787 52.4153 111.858C52.4153 114.928 54.9162 117.429 57.9867 117.429Z" fill="black"></path>
<path d="M76.9295 105.172C81.04 105.172 84.3581 101.854 84.3581 97.7435C84.3581 93.633 81.04 90.3149 76.9295 90.3149C72.8191 90.3149 69.501 93.633 69.501 97.7435C69.501 101.854 72.8191 105.172 76.9295 105.172Z" fill="#0078D4"></path>
<path d="M40.2077 125.031C42.2629 125.031 43.922 123.372 43.922 121.317C43.922 119.262 42.2629 117.603 40.2077 117.603C38.1525 117.603 36.4934 119.262 36.4934 121.317C36.4934 123.372 38.1772 125.031 40.2077 125.031Z" fill="black"></path>
<path d="M23.4684 129.414C25.5237 129.414 27.1827 127.755 27.1827 125.7C27.1827 123.644 25.5237 121.985 23.4684 121.985C21.4132 121.985 19.7542 123.644 19.7542 125.7C19.7542 127.755 21.4132 129.414 23.4684 129.414Z" fill="black"></path>
<path d="M133.857 7.88232C133.857 77.6118 77.3505 134.143 7.59619 134.143V149H148.714V7.88232H133.857Z" fill="#0078D4"></path>
</svg>

<svg xmlns="http://www.w3.org/2000/svg" viewBox="0 0 157 157"><path d="M111.596 37.572c8.196 0 14.857-6.66 14.857-14.857 0-8.196-6.661-14.857-14.857-14.857s-14.857 6.66-14.857 14.857c0 8.221 6.636 14.857 14.857 14.857z" fill="#50E6FF"/><path d="M96.739 79.89c6.141 0 11.143-4.977 11.143-11.143 0-6.14-4.977-11.142-11.143-11.142-6.14 0-11.143 4.977-11.143 11.142A11.128 11.128 0 0 0 96.74 79.89z" fill="#0078D4"/><path d="M57.987 117.429a5.58 5.58 0 0 0 5.571-5.571 5.58 5.58 0 0 0-5.571-5.572 5.58 5.58 0 0 0-5.572 5.572 5.58 5.58 0 0 0 5.572 5.571z"/><path d="M76.93 105.172a7.419 7.419 0 0 0 7.428-7.428 7.419 7.419 0 0 0-7.428-7.43 7.419 7.419 0 0 0-7.429 7.43 7.419 7.419 0 0 0 7.428 7.428z" fill="#0078D4"/><path d="M40.208 125.031a3.71 3.71 0 0 0 3.714-3.714 3.71 3.71 0 0 0-3.714-3.714 3.71 3.71 0 0 0-3.715 3.714 3.725 3.725 0 0 0 3.715 3.714zM23.468 129.414a3.71 3.71 0 0 0 3.715-3.714 3.71 3.71 0 0 0-3.715-3.715 3.71 3.71 0 0 0-3.714 3.715 3.71 3.71 0 0 0 3.714 3.714z"/><path d="M133.857 7.882c0 69.73-56.507 126.261-126.26 126.261V149h141.117V7.882h-14.857z" fill="#0078D4"/></svg>
